img/footer/footer-mail.svg

<svg width="20" height="20" viewBox="0 0 20 20" fill="none" xmlns="http://www.w3.org/2000/svg">
<path d="M9.99996 1.6665C5.39996 1.6665 1.66663 5.39984 1.66663 9.99984C1.66663 14.5998 5.39996 18.3332 9.99996 18.3332H14.1666V16.6665H9.99996C6.38329 16.6665 3.33329 13.6165 3.33329 9.99984C3.33329 6.38317 6.38329 3.33317 9.99996 3.33317C13.6166 3.33317 16.6666 6.38317 16.6666 9.99984V11.1915C16.6666 11.8498 16.075 12.4998 15.4166 12.4998C14.7583 12.4998 14.1666 11.8498 14.1666 11.1915V9.99984C14.1666 7.69984 12.3 5.83317 9.99996 5.83317C7.69996 5.83317 5.83329 7.69984 5.83329 9.99984C5.83329 12.2998 7.69996 14.1665 9.99996 14.1665C11.15 14.1665 12.2 13.6998 12.95 12.9415C13.4916 13.6832 14.425 14.1665 15.4166 14.1665C17.0583 14.1665 18.3333 12.8332 18.3333 11.1915V9.99984C18.3333 5.39984 14.6 1.6665 9.99996 1.6665ZM9.99996 12.4998C8.61663 12.4998 7.49996 11.3832 7.49996 9.99984C7.49996 8.6165 8.61663 7.49984 9.99996 7.49984C11.3833 7.49984 12.5 8.6165 12.5 9.99984C12.5 11.3832 11.3833 12.4998 9.99996 12.4998Z" fill="white"/>
</svg>

<svg width="20" height="20" fill="none" xmlns="http://www.w3.org/2000/svg"><path d="M10 1.667A8.336 8.336 0 001.667 10c0 4.6 3.733 8.333 8.333 8.333h4.167v-1.666H10c-3.617 0-6.667-3.05-6.667-6.667S6.383 3.333 10 3.333s6.667 3.05 6.667 6.667v1.191c0 .659-.592 1.309-1.25 1.309-.659 0-1.25-.65-1.25-1.309V10c0-2.3-1.867-4.167-4.167-4.167A4.168 4.168 0 005.833 10a4.168 4.168 0 007.117 2.941c.542.742 1.475 1.225 2.467 1.225 1.641 0 2.916-1.333 2.916-2.975V10c0-4.6-3.733-8.333-8.333-8.333zM10 12.5A2.497 2.497 0 017.5 10c0-1.383 1.117-2.5 2.5-2.5s2.5 1.117 2.5 2.5-1.117 2.5-2.5 2.5z" fill="#fff"/></svg>
